www/assets/icons/female.svg

<svg xmlns="http://www.w3.org/2000/svg" width="24" height="24" viewBox="0 0 24 24" fill='currentColor'><path d="M17.5 9c0-3.04-2.46-5.5-5.5-5.5S6.5 5.96 6.5 9c0 2.7 1.94 4.93 4.5 5.4v2.1H9v2h2v2h2v-2h2v-2h-2v-2.1c2.56-.47 4.5-2.7 4.5-5.4m-9 0c0-1.93 1.57-3.5 3.5-3.5s3.5 1.57 3.5 3.5-1.57 3.5-3.5 3.5S8.5 10.93 8.5 9"/></svg>

<svg width="24" height="24" viewBox="0 0 24 24" xmlns="http://www.w3.org/2000/svg" fill='currentColor'><path d="M17.5 9C17.5 5.96 15.04 3.5 12 3.5C8.96 3.5 6.5 5.96 6.5 9C6.5 11.7 8.44 13.93 11 14.4V16.5H9V18.5H11V20.5H13V18.5H15V16.5H13V14.4C15.56 13.93 17.5 11.7 17.5 9ZM8.5 9C8.5 7.07 10.07 5.5 12 5.5C13.93 5.5 15.5 7.07 15.5 9C15.5 10.93 13.93 12.5 12 12.5C10.07 12.5 8.5 10.93 8.5 9Z"/></svg>
